X: 25
T:La Grand Bete
M:4/4
L:1/8
C:Giles Chabenat
R:Schottische
Z:Steve Mansfield
K:Dm
DEFG A2A2 | GABG A2A2 | FAGF EGFE | DEFG A2A2 | DEFG A2A2 | GABG A4 |
c2B2A2G2 | F2E2 D4 :: A4d4 | ^cdec d4 | A=BcA c=BAG |
FEFG A2A2 | A4d4| ^cdec d4 | A=BcA c=BAG | FGFE D4 :|
<end>
<start>
